flaticon/symbols/virgo.svg

<svg xmlns="http://www.w3.org/2000/svg" width="32" height="32" viewBox="0 0 24 24">
    <path d="M 12 0 C 5.382812 0 0 5.382812 0 12 C 0 18.617188 5.382812 24 12 24 C 18.617188 24 24 18.617188 24 12 C 24 5.382812 18.617188 0 12 0 Z M 12 23.171875 C 5.839844 23.171875 0.828125 18.160156 0.828125 12 C 0.828125 5.839844 5.839844 0.828125 12 0.828125 C 18.160156 0.828125 23.171875 5.839844 23.171875 12 C 23.171875 18.160156 18.160156 23.171875 12 23.171875 Z M 12 23.171875"/>
    <path d="M 21.605469 11.371094 C 21.410156 10.4375 20.832031 9.652344 20.015625 9.207031 C 19.378906 8.867188 18.765625 8.792969 18.183594 8.996094 C 17.867188 9.109375 17.597656 9.289062 17.378906 9.492188 C 17.367188 8 16.15625 6.875 14.550781 6.875 C 13.464844 6.875 12.53125 7.375 12.015625 8.132812 C 11.53125 7.367188 10.644531 6.875 9.585938 6.875 C 8.5 6.875 7.566406 7.375 7.050781 8.132812 C 6.566406 7.367188 5.679688 6.875 4.621094 6.875 C 2.957031 6.875 1.65625 8.035156 1.65625 9.515625 C 1.65625 9.746094 1.839844 9.929688 2.070312 9.929688 C 2.296875 9.929688 2.484375 9.746094 2.484375 9.515625 C 2.484375 8.382812 3.570312 7.703125 4.621094 7.703125 C 5.78125 7.703125 6.621094 8.464844 6.621094 9.515625 L 6.621094 17.378906 C 6.621094 17.609375 6.804688 17.792969 7.035156 17.792969 C 7.261719 17.792969 7.449219 17.609375 7.449219 17.378906 L 7.449219 9.515625 C 7.449219 8.382812 8.535156 7.703125 9.585938 7.703125 C 10.746094 7.703125 11.585938 8.464844 11.585938 9.515625 L 11.585938 17.378906 C 11.585938 17.609375 11.769531 17.792969 12 17.792969 C 12.230469 17.792969 12.414062 17.609375 12.414062 17.378906 L 12.414062 9.515625 C 12.414062 8.382812 13.5 7.703125 14.550781 7.703125 C 15.710938 7.703125 16.550781 8.464844 16.550781 9.515625 L 16.550781 17.371094 C 15.894531 17.777344 15.148438 18.210938 14.289062 18.667969 C 14.085938 18.777344 14.011719 19.027344 14.117188 19.230469 C 14.191406 19.367188 14.335938 19.449219 14.484375 19.449219 C 14.546875 19.449219 14.613281 19.433594 14.675781 19.398438 C 15.441406 18.992188 16.125 18.601562 16.738281 18.226562 C 17.0625 18.945312 17.78125 19.449219 18.621094 19.449219 C 18.847656 19.449219 19.035156 19.261719 19.035156 19.035156 C 19.035156 18.804688 18.847656 18.621094 18.621094 18.621094 C 18.074219 18.621094 17.617188 18.265625 17.449219 17.777344 C 21.855469 14.902344 21.9375 12.976562 21.605469 11.371094 Z M 17.378906 16.832031 L 17.378906 10.855469 C 17.484375 10.648438 17.855469 9.988281 18.457031 9.777344 C 18.8125 9.652344 19.195312 9.707031 19.621094 9.9375 C 20.214844 10.257812 20.652344 10.855469 20.792969 11.539062 C 21.003906 12.558594 21.328125 14.148438 17.378906 16.832031 Z M 17.378906 16.832031"/>
</svg>

<svg xmlns="http://www.w3.org/2000/svg" width="32" height="32" viewBox="0 0 24 24">
    <path d="M12 0C5.383 0 0 5.383 0 12s5.383 12 12 12 12-5.383 12-12S18.617 0 12 0zm0 23.172C5.84 23.172.828 18.16.828 12 .828 5.84 5.84.828 12 .828 18.16.828 23.172 5.84 23.172 12c0 6.16-5.012 11.172-11.172 11.172zm0 0"/>
    <path d="M21.605 11.371a3.192 3.192 0 0 0-1.59-2.164c-.636-.34-1.25-.414-1.831-.21a2.354 2.354 0 0 0-.805.495C17.367 8 16.156 6.875 14.55 6.875c-1.086 0-2.02.5-2.535 1.258-.485-.766-1.371-1.258-2.43-1.258-1.086 0-2.02.5-2.535 1.258-.485-.766-1.371-1.258-2.43-1.258-1.664 0-2.965 1.16-2.965 2.64a.414.414 0 0 0 .828 0c0-1.132 1.086-1.812 2.137-1.812 1.16 0 2 .762 2 1.813v7.863a.414.414 0 0 0 .828 0V9.516c0-1.133 1.086-1.813 2.137-1.813 1.16 0 2 .762 2 1.813v7.863c0 .23.184.414.414.414.23 0 .414-.184.414-.414V9.516c0-1.133 1.086-1.813 2.137-1.813 1.16 0 2 .762 2 1.813v7.855c-.656.406-1.403.84-2.262 1.297a.418.418 0 0 0-.172.562.42.42 0 0 0 .367.22.39.39 0 0 0 .192-.052 38.93 38.93 0 0 0 2.062-1.171 2.067 2.067 0 0 0 1.883 1.222.414.414 0 0 0 0-.828 1.241 1.241 0 0 1-1.172-.844c4.406-2.875 4.488-4.8 4.156-6.406zm-4.226 5.461v-5.977c.105-.207.476-.867 1.078-1.078.355-.125.738-.07 1.164.16.594.32 1.031.918 1.172 1.602.21 1.02.535 2.61-3.414 5.293zm0 0"/>
</svg>
